X: 1
T: Reinlender fra R\orostraktene
O: etter Sven Nyhus
R: shottish
M: 4/4
L: 1/8
K: D
A- \
|: "D"d2 df A2 Ad | F>G AB A2 A2 |1,3 "G"B>A GF "Em"G2 E2 | "A7"A>G FE "D"F2 D2 \
                                :|2,4 "A7"E>d ce cA Bc | "D"d2{e}dc d4 :|
|: "D"A2 AG F>D FA | d2 FG A4 | "G"B2 G2 "Em"G>F GA | "A7"G2 FE "D"F4 \
| "Em"GG FG "A7"E2 (3ABc |  "D"d2 FG A4 | "A7"E>d ce cA Bc | "D"d2{e}dc d4 :|
